!!!COM:      Bach, Johann Sebastian
!!!CDT:      1685/03/31/-1750/07/28/
!!!OPR@@GER: Das wohltemperirte Clavier
!!!OVM@@GER: Band I
!!!OPR@ENG:  Well-Tempered Clavier
!!!OVM@ENG:  Book I
!!!OTL:      Fugue
!!!OKY:      F major
!!!ONM:      no. 11
!!!SCT:      BWV 856
!!!OMV:      2
**kern	**kern	**kern
*clefF4	*clefF4	*clefG2
*k[b-]	*k[b-]	*k[b-]
*F:	*F:	*F:
*M3/8	*M3/8	*M3/8
*MM76	*MM76	*MM76
=1-	=1-	=1-
8r	8c	8r
=2	=2	=2
4.r	8d	4.r
.	8c	.
.	8B-	.
=3	=3	=3
4.r	8c	4.r
.	16E	.
.	16F	.
.	16G	.
.	16A	.
=4	=4	=4
4.r	8B-	4.r
.	16c	.
.	16B-	.
.	16A	.
.	16G	.
=5	=5	=5
4.r	16A	8r
.	16G	.
.	16F	8r
.	16G	.
.	16A	8f
.	16B-	.
=6	=6	=6
4.r	16c	8a
.	16B-	.
.	16A	8g
.	16B-	.
.	16c	8f
.	16d	.
=7	=7	=7
4.r	16e	8g
.	16g	.
.	16f	16Bn
.	16e	16c
.	16d	16d
.	16c	16e
=8	=8	=8
4.r	4.Bnw	8f
.	.	16g
.	.	16f
.	.	16e
.	.	16d
=9	=9	=9
4.r	8c	16e
.	.	16d
.	8B-X	16c
.	.	16d
.	8A	16e
.	.	16f
=10	=10	=10
8r	16B-	8g
.	16A	.
8r	16G	8f
.	16A	.
8C	16B-	8e
.	16c	.
=11	=11	=11
8D	4A	16f
.	.	16e
8C	.	16d
.	.	16e
8BB-	8d	16f
.	.	16g
=12	=12	=12
*	*staff:12	*
*	*clefG2	*
8C	8e	16a
.	.	16cc
16EE	8g	16b-
16FF	.	16a
16GG	8c	16g
16AA	.	16f
=13	=13	=13
8BB-	[4.c	4.ew
16C	.	.
16BB-	.	.
16AA	.	.
16GG	.	.
=14	=14	=14
16AA	4c]	8f
16GG	.	.
16FF	.	4a
16GG	.	.
16AA	8f	.
16BB-	.	.
=15	=15	=15
16C	4e	8g
16BBn	.	.
16AA	.	4cc
16BB	.	.
16C	8a	.
16D	.	.
=16	=16	=16
16E	4g	8bn
16G	.	.
16F	.	4ee
16E	.	.
16D	[8cc	.
16C	.	.
=17	=17	=17
4.BBnw	16cc]	[4.dd
.	16cc	.
.	16bn	.
.	16a	.
.	16g	.
.	16f	.
=18	=18	=18
8C	8.e	16dd]
.	.	16dd
16D	.	8cc
16E	16b-X	.
8F	16a	8cc
.	16g	.
=19	=19	=19
4.B-	16f	8dd
.	16e	.
.	16d	8cc
.	16e	.
.	16f	8b-
.	16g	.
=20	=20	=20
16A	8a	8cc
16c	.	.
16B-	8r	16e
16A	.	16f
16G	8r	16g
16F	.	16a
=21	=21	=21
4.Et	4.r	8b-
.	.	16cc
.	.	16b-
.	.	16a
.	.	16g
=22	=22	=22
4F	8r	16a
.	.	16g
.	8r	16f
.	.	16g
8r	8f	16a
.	.	16b-
=23	=23	=23
4.r	8a	16cc
.	.	16b-
.	8g	16a
.	.	16b-
.	8f	16cc
.	.	16dd
=24	=24	=24
4.r	8g	16ee
.	.	16gg
.	16Bn	16ff
.	16c	16ee
.	16d	16dd
.	16e	16cc
=25	=25	=25
4.r	8f	4.bnw
.	16g	.
.	16f	.
.	16e	.
.	16d	.
=26	=26	=26
8r	16e	16cc
.	16d	16dd
8r	16c	16ee
.	16d	16ff
8c	16e	16gg
.	16c	16aa
=27	=27	=27
8d	4f	16b-
.	.	16cc
8c	.	16dd
.	.	16ee
8B-	8r	16ff
.	.	16gg
=28	=28	=28
8c	8r	16aa
.	.	16ccc
16E	8r	16bb-
16F	.	16aa
16G	8cc	16gg
16A	.	16ff
=29	=29	=29
8B-	8dd	8ff
16c	8cc	4eew
16B-	.	.
16A	8b-	.
16G	.	.
=30	=30	=30
16A	8cc	8ff
16c	.	.
16B-	16e	8r
16A	16f	.
16G	16g	8r
16F	16a	.
=31	=31	=31
4.Et	8b-	[4.gg
.	16cc	.
.	16b-	.
.	16a	.
.	16g	.
=32	=32	=32
8F	[4.a	16gg]
.	.	16gg
8G	.	16ff
.	.	16ee
8A	.	16dd
.	.	16cc
=33	=33	=33
4D	8a]	[4.ff
.	16b-	.
.	16a	.
8r	16g	.
.	16f	.
=34	=34	=34
8E	[4.g	16ff]
.	.	16ff
8F	.	16ee
.	.	16dd
8G	.	16cc#
.	.	16bn
=35	=35	=35
4C#	8g]	[4.ee
.	16a	.
.	16g	.
8c#X	16f	.
.	16e	.
=36	=36	=36
8d	16f	8ee]
.	16e	.
8cn	16f	8a
.	16g	.
8B-	16a	8dd
.	16g	.
=37	=37	=37
[4.A	16a	4cc#
.	16b-	.
.	16a	.
.	16g	.
.	16f	8aa
.	16e	.
=38	=38	=38
4.A_	16d	8bb-
.	16c#	.
.	16d	8aa
.	16f	.
.	16e	8gg
.	16d	.
=39	=39	=39
4.A_	8c#	8aa
.	8r	16cc#X
.	.	16dd
.	8a	16ee
.	.	16ff
=40	=40	=40
4.A_	8b-	8gg
.	8a	16aa
.	.	16gg
.	8g	16ff
.	.	16ee
=41	=41	=41
4A]	8a	16ff
.	.	16aa
.	16c#	16gg
.	16d	16ff
8A	16e	16ee
.	16f	16dd
=42	=42	=42
8B-	8g	[4.cc#
8A	16a	.
.	16g	.
8G	16f	.
.	16e	.
=43	=43	=43
8A	4f	16cc#]
.	.	32dd
.	.	32ccn
16C#	.	16b-
16D	.	16a
16E	8r	16g
16F	.	16f
=44	=44	=44
8G	[4.c#w	8b-
16A	.	8a
16G	.	.
16F	.	8g
16E	.	.
=45	=45	=45
8.F	16c#]	[4.a
.	16A	.
.	16Bn	.
16G	16c#	.
16F	16d	.
16E	16e	.
=46	=46	=46
16D	16f	16a]
16G	16e	16b-
8A	4c#	8.ew
8AA	.	.
.	.	16d
=47	=47	=47
4DD	4d	16d
.	.	16e
.	.	16f
.	.	16g
8D	8r	16a
.	.	16b-
=48	=48	=48
8E-	4.r	16cc
.	.	16b-
8D	.	16cc
.	.	16dd
8C	.	16ee-
.	.	16dd
=49	=49	=49
8D	8r	16f#
.	.	16e
16FF#	8r	16d
16GG	.	16e
16AA	8d	16f#
16BB-	.	16g
=50	=50	=50
16C	8e-	[4.a
16BB-	.	.
16D	8d	.
16C	.	.
16BB-	8c	.
16AA	.	.
=51	=51	=51
*	*staff:3	*
*	*clefF4	*
8BB-	8d	16a]
.	.	16g
8r	16F#	16a
.	16G	16b-
8r	16A	16cc
.	16B-	16dd
=52	=52	=52
8F#	16c	8ee-
.	16B-	.
8r	16d	8dd
.	16c	.
8r	16B-	8cc
.	16A	.
=53	=53	=53
8G	16B-	8dd
.	16d	.
8r	16c	16f#
.	16B-	16g
8r	16A	16a
.	16G	16b-
=54	=54	=54
8E-	8F#	16cc
.	.	16b-
8r	8r	16dd
.	.	16cc
8r	8r	16b-
.	.	16a
=55	=55	=55
8D	16G	16b-
.	16A	16f#
8r	16B-	16g
.	16c	16a
8r	16d	16b-
.	16A	16cc#
=56	=56	=56
16r	8B-	16dd
16C	.	16gg
8D	8G	8b-W
8D	8F#	16a
.	.	16g
=57	=57	=57
*	*staff:2	*
*	*clefG2	*
8GG	16G	8g
.	16d	.
8AA	16g	[4b-
.	16f	.
8BB-	16e	.
.	16d	.
=58	=58	=58
8C	4.e	16b-]
.	.	16g
8D	.	16cc
.	.	16b-
8E	.	16a
.	.	16g
=59	=59	=59
8F	16r	[4.a
.	16c	.
8G	16f	.
.	16e-	.
8A	16d	.
.	16c	.
=60	=60	=60
[4.B-	4.d	16a]
.	.	16f
.	.	16b-
.	.	16a
.	.	16g
.	.	16f
=61	=61	=61
16B-]	8c	8e
16G	.	.
16c	8d	8f
16B-	.	.
16A	8e	8g
16G	.	.
=62	=62	=62
16F	8f	8a
16C	.	.
16F	8g	8b-
16E-	.	.
16D	8a	8cc
16C	.	.
=63	=63	=63
16BB-	[4.b-	8dd
16C	.	.
16BB-	.	8ee
16AA	.	.
16GG	.	8ff
16FF	.	.
=64	=64	=64
4EE	16b-]	[4.gg
.	16g	.
.	16cc	.
.	16b-	.
8r	16a	.
.	16g	.
=65	=65	=65
8FF	[4.a	16gg]
.	.	16cc
8GG	.	16ff
.	.	16ee-
8AA	.	16dd
.	.	16cc
=66	=66	=66
*	*staff:1	*
*	*clefF4	*
4BB-	8a]	16dd
.	.	16cc
.	8D	16ee-
.	.	16dd
8r	[8G	16cc
.	.	16b-
=67	=67	=67
4AA	16G]	8cc
.	16F	.
.	16B-	16en
.	16A	16f
8r	16G	16g
.	16F	16a
=68	=68	=68
4GG	8G	16b-
.	.	16a
.	16BB-	16cc
.	16C	16b-
8r	16D	16a
.	16E	16g
=69	=69	=69
8FF	[4.F	16a
.	.	16g
8GG	.	16b-
.	.	16a
8AA	.	16cc
.	.	16b-
=70	=70	=70
*MM69	*MM69	*MM69
8BB-	4F]	16dd
.	.	16cc
8C	.	16ee
*MM62	*MM62	*MM62
.	.	16dd
8D	[8B-	16ff
.	.	16ee
=71	=71	=71
*MM58	*MM58	*MM58
*	*staff:2	*
*	*clefG2	*
8E	8B-]	16gg
.	.	16a
8C	8e	16b-
.	.	16g
8F	[8f	[8a
=72	=72	=72
8BB-	8f]	16a]
.	.	16b-
8C	4e	8.gW
8CC	.	.
.	.	16f
=73	=73	=73
4FF	4f;y	4f;
==	==	==
*-	*-	*-
!!!AFR:  fugue
!!!EFL:  22/96
!!!END:  1994/01/13/
!!!VID:  618893430 Bach, BWV 856-02
!!!AST:  Baroque
!!!OCY:  Deutschland
!!!ODT:  1722///
!!!PDT:  1801///
!!!EED:  Walter Hewlett
!!!ENC:  Walter Hewlett
!!!YOR:  Bach Gesellschaft Edition xiv
!!!AFT:  enhanced SCORE
!!!RDT:  2011/10/07/ by Andreas Kornstaedt using massScr2hmd
!!!SCA1: Thematisch-systematisches Verzeichnis der musikalischen Werke 
!!!SCA2: Johann Sebastian Bach: Bach-Werke-Verzeichnis (Schmieder)
!!!YEC1: Copyright 1994, 2000 Center for Computer Assisted Research 
!!!YEC2: in the Humanities
!!!YEM1: Rights to all derivative editions reserved.
!!!YEM2: Refer to licensing agreement for further details.
!!!YEN:  United States of America
!!!ref:  @{OTL}, @{SCT}
!!muse2ps: T^@{OTL} @{ONM} in @{OKY}^C^J.S. Bach\n@{SCT}-@{OMV}^
!!muse2ps: u^@{OPR@ENG}, @{OVM@ENG}^j
